docs/img/icons/email.svg

<svg width="25" height="21" viewBox="0 0 25 21">
  <path d="M22.8027 0.978516H2.19727C0.987207 0.978516 0 1.96465 0 3.17578V17.8242C0 19.0312 0.982813 20.0215 2.19727 20.0215H22.8027C24.0098 20.0215 25 19.0387 25 17.8242V3.17578C25 1.96875 24.0172 0.978516 22.8027 0.978516ZM22.4993 2.44336L12.5466 12.3961L2.50776 2.44336H22.4993ZM1.46484 17.5209V3.47212L8.51948 10.4663L1.46484 17.5209ZM2.50063 18.5566L9.55972 11.4976L12.0332 13.9498C12.3195 14.2337 12.7816 14.2328 13.0667 13.9476L15.4785 11.5358L22.4994 18.5566H2.50063ZM23.5352 17.5208L16.5143 10.5L23.5352 3.4791V17.5208Z"/>
</svg>

<svg width="25" height="21"><path d="M22.803.979H2.197A2.2 2.2 0 000 3.176v14.648a2.2 2.2 0 002.197 2.197h20.606A2.2 2.2 0 0025 17.825V3.176A2.2 2.2 0 0022.803.979zm-.304 1.464l-9.952 9.953-10.04-9.953H22.5zM1.465 17.521V3.472l7.054 6.994-7.054 7.055zM2.5 18.557l7.059-7.06 2.473 2.453a.732.732 0 001.034-.002l2.412-2.412 7.02 7.02H2.501zm21.034-1.036l-7.02-7.021 7.02-7.02v14.04z"/></svg>
